src/qt/dogecash/res/img/ic-nav-privacy-hover.svg

<?xml version="1.0" encoding="UTF-8"?>
<svg width="24px" height="40px" viewBox="0 0 24 40" version="1.1" xmlns="http://www.w3.org/2000/svg" xmlns:xlink="http://www.w3.org/1999/xlink">
    <!-- Generator: Sketch 52.6 (67491) - http://www.bohemiancoding.com/sketch -->
    <title>Privacy</title>
    <desc>Created with Sketch.</desc>
    <g id="Privacy" stroke="none" stroke-width="1" fill="none" fill-rule="evenodd">
        <g id="Group" transform="translate(1.000000, 13.000000)" fill="#FFFFFF" fill-rule="nonzero">
            <path d="M20.025,10.116 L17.771,0.009 L11,1.156 L4.229,0 L1.975,10.116 L0,10.116 L0,12.116 L22,12.116 L22,10.116 L20.025,10.116 Z M5.771,2.294 L11,3.183 L16.229,2.283 L17.976,10.116 L4.024,10.116 L5.771,2.294 Z" id="Path_18869"></path>
            <path d="M12,16.116 L10,16.116 L10,14.116 L1,14.116 L1,17.854 C1.08087292,20.2726593 3.08016383,22.1830929 5.5,22.154 C7.77023475,22.0683766 9.65187105,20.366305 9.964,18.116 L12.036,18.116 C12.3490129,20.3655153 14.2304203,22.0665369 16.5,22.152 C18.9198362,22.1810929 20.9191271,20.2706593 21,17.852 L21,14.116 L12,14.116 L12,16.116 Z M8,17.854 C7.90893564,19.1676128 6.81676551,20.186691 5.5,20.186691 C4.18323449,20.186691 3.09106436,19.1676128 3,17.854 L3,16.116 L8,16.116 L8,17.854 Z M14,16.116 L19,16.116 L19,17.854 C18.9089356,19.1676128 17.8167655,20.186691 16.5,20.186691 C15.1832345,20.186691 14.0910644,19.1676128 14,17.854 L14,16.116 Z" id="Path_18870"></path>
        </g>
    </g>
</svg>

<?xml version="1.0" encoding="utf-8"?>
<!-- Generator: Adobe Illustrator 16.0.0, SVG Export Plug-In . SVG Version: 6.00 Build 0)  -->
<!DOCTYPE svg PUBLIC "-//W3C//DTD SVG 1.1//EN" "http://www.w3.org/Graphics/SVG/1.1/DTD/svg11.dtd">
<svg version="1.1" id="Layer_1" xmlns="http://www.w3.org/2000/svg" xmlns:xlink="http://www.w3.org/1999/xlink" x="0px" y="0px"
	 width="24px" height="40px" viewBox="0 0 24 40" enable-background="new 0 0 24 40" xml:space="preserve">
<title>Privacy</title>
<desc>Created with Sketch.</desc>
<g id="Privacy">
	<g id="Group" transform="translate(1.000000, 13.000000)">
		<path id="Path_18869" fill="#007BFE" d="M20.025,10.116L17.771,0.009L11,1.156L4.229,0L1.975,10.116H0v2h22v-2H20.025z
			 M5.771,2.294L11,3.183l5.229-0.9l1.748,7.833H4.024L5.771,2.294z"/>
		<path id="Path_18870" fill="#007BFE" d="M12,16.116h-2v-2H1v3.737c0.081,2.419,2.08,4.33,4.5,4.301
			c2.27-0.086,4.152-1.788,4.464-4.038h2.072c0.313,2.249,2.194,3.95,4.464,4.036c2.42,0.029,4.419-1.882,4.5-4.301v-3.735h-9
			V16.116z M8,17.854c-0.091,1.314-1.183,2.333-2.5,2.333S3.091,19.168,3,17.854v-1.737h5V17.854z M14,16.116h5v1.737
			c-0.091,1.314-1.184,2.333-2.5,2.333s-2.409-1.019-2.5-2.333V16.116z"/>
	</g>
</g>
</svg>
